X: 8476
T: Craoibhin Cno
R: jig
M: 6/8
K: Gmajor
B/2A/2|GAG DEA|G2 G G2 G/2A/2|BdB BAG|B2 A A2 G/2A/2|
BdB BAG|B2 A A2 B/2A/2|GAG DEA|G2 G G2|
G/2A/2|B3 G3|BAA A3|B3 G3|AGG G2 G/2A/2|
BdB BAG|B2 A A2 B/2A/2|GAG DEA|G2 G G2|

